build/img/icon/payment.svg

<svg xmlns="http://www.w3.org/2000/svg" height="937.5pt" version="1.1" viewBox="0 0 937.5 937.5" width="937.5pt">
<g id="surface1">
<path d="M 781.25 165.53125 L 781.25 78.125 C 781.195312 35 746.25 0.0546875 703.125 0 L 78.125 0 C 35 0.0546875 0.0546875 35 0 78.125 L 0 421.875 C 0.121094 461.777344 30.367188 495.148438 70.0625 499.195312 L 128.796875 651.660156 C 144.3125 691.917969 189.523438 711.972656 229.785156 696.476562 L 596.5625 555.1875 C 571.21875 621.386719 578.429688 695.648438 616.023438 755.738281 L 625 770.09375 L 625 921.875 C 625 930.507812 631.992188 937.5 640.625 937.5 L 921.875 937.5 C 930.507812 937.5 937.5 930.507812 937.5 921.875 L 937.5 406.113281 C 937.351562 352.078125 915.839844 300.304688 877.636719 262.089844 Z M 781.25 258.976562 L 828.671875 382.078125 C 837.964844 406.242188 825.921875 433.355469 801.761719 442.65625 L 774.65625 453.125 C 778.984375 443.273438 781.226562 432.625 781.25 421.875 Z M 31.25 421.875 L 31.25 78.125 C 31.25 52.242188 52.242188 31.25 78.125 31.25 L 703.125 31.25 C 729.007812 31.25 750 52.242188 750 78.125 L 750 177.4375 L 749.863281 177.4375 L 750 177.792969 L 750 421.875 C 749.878906 424.601562 749.523438 427.304688 748.9375 429.96875 L 605.8125 286.828125 C 573.640625 255.398438 522.351562 255.15625 489.890625 286.257812 C 457.421875 317.378906 455.472656 368.628906 485.5 402.105469 L 546.515625 468.75 L 78.125 468.75 C 52.242188 468.75 31.25 447.757812 31.25 421.875 Z M 231.421875 500 L 120.3125 542.777344 L 103.875 500 Z M 218.546875 667.308594 C 194.390625 676.621094 167.261719 664.578125 157.953125 640.421875 L 131.59375 571.875 L 318.109375 500 L 318.109375 499.90625 L 575.15625 499.90625 L 595.464844 522.046875 Z M 906.25 906.25 L 656.25 906.25 L 656.25 781.25 L 906.25 781.25 Z M 906.25 750 L 649.296875 750 L 642.519531 739.171875 C 604.421875 678.289062 602.90625 601.390625 638.5625 539.0625 C 641.9375 533.164062 641.109375 525.757812 636.515625 520.75 L 508.472656 381.0625 C 489.378906 360.164062 490.453125 327.855469 510.894531 308.28125 C 531.34375 288.703125 563.667969 289.023438 583.714844 308.992188 L 832.703125 557.921875 L 854.796875 535.828125 L 796.984375 478.015625 L 813.015625 471.765625 C 853.242188 456.246094 873.289062 411.074219 857.8125 370.824219 L 804.925781 233.496094 L 855.542969 284.21875 C 887.886719 316.554688 906.125 360.375 906.25 406.113281 Z M 906.25 750 " style=" stroke:none;fill-rule:nonzero;fill:rgb(0%,0%,0%);fill-opacity:1;" />
<path d="M 178.125 218.75 C 200.5625 218.75 218.75 200.5625 218.75 178.125 L 218.75 103.125 C 218.75 80.6875 200.5625 62.5 178.125 62.5 L 103.125 62.5 C 80.6875 62.5 62.5 80.6875 62.5 103.125 L 62.5 178.125 C 62.5 200.5625 80.6875 218.75 103.125 218.75 Z M 93.75 178.125 L 93.75 156.25 L 125 156.25 L 125 125 L 93.75 125 L 93.75 103.125 C 93.75 97.949219 97.949219 93.75 103.125 93.75 L 178.125 93.75 C 183.300781 93.75 187.5 97.949219 187.5 103.125 L 187.5 125 L 156.25 125 L 156.25 156.25 L 187.5 156.25 L 187.5 178.125 C 187.5 183.300781 183.300781 187.5 178.125 187.5 L 103.125 187.5 C 97.949219 187.5 93.75 183.300781 93.75 178.125 Z M 93.75 178.125 " style=" stroke:none;fill-rule:nonzero;fill:rgb(0%,0%,0%);fill-opacity:1;" />
<path d="M 78.125 265.625 L 140.625 265.625 L 140.625 296.875 L 78.125 296.875 Z M 78.125 265.625 " style=" stroke:none;fill-rule:nonzero;fill:rgb(0%,0%,0%);fill-opacity:1;" />
<path d="M 78.125 359.375 L 140.625 359.375 L 140.625 390.625 L 78.125 390.625 Z M 78.125 359.375 " style=" stroke:none;fill-rule:nonzero;fill:rgb(0%,0%,0%);fill-opacity:1;" />
<path d="M 359.375 359.375 L 421.875 359.375 L 421.875 390.625 L 359.375 390.625 Z M 359.375 359.375 " style=" stroke:none;fill-rule:nonzero;fill:rgb(0%,0%,0%);fill-opacity:1;" />
<path d="M 171.875 265.625 L 234.375 265.625 L 234.375 296.875 L 171.875 296.875 Z M 171.875 265.625 " style=" stroke:none;fill-rule:nonzero;fill:rgb(0%,0%,0%);fill-opacity:1;" />
<path d="M 265.625 265.625 L 328.125 265.625 L 328.125 296.875 L 265.625 296.875 Z M 265.625 265.625 " style=" stroke:none;fill-rule:nonzero;fill:rgb(0%,0%,0%);fill-opacity:1;" />
<path d="M 359.375 265.625 L 421.875 265.625 L 421.875 296.875 L 359.375 296.875 Z M 359.375 265.625 " style=" stroke:none;fill-rule:nonzero;fill:rgb(0%,0%,0%);fill-opacity:1;" />
<path d="M 656.25 78.125 L 687.5 78.125 L 687.5 125 L 656.25 125 Z M 656.25 78.125 " style=" stroke:none;fill-rule:nonzero;fill:rgb(0%,0%,0%);fill-opacity:1;" />
<path d="M 593.75 78.125 L 625 78.125 L 625 125 L 593.75 125 Z M 593.75 78.125 " style=" stroke:none;fill-rule:nonzero;fill:rgb(0%,0%,0%);fill-opacity:1;" />
<path d="M 531.25 78.125 L 562.5 78.125 L 562.5 125 L 531.25 125 Z M 531.25 78.125 " style=" stroke:none;fill-rule:nonzero;fill:rgb(0%,0%,0%);fill-opacity:1;" />
<path d="M 468.75 78.125 L 500 78.125 L 500 125 L 468.75 125 Z M 468.75 78.125 " style=" stroke:none;fill-rule:nonzero;fill:rgb(0%,0%,0%);fill-opacity:1;" />
<path d="M 687.5 812.5 L 718.75 812.5 L 718.75 843.75 L 687.5 843.75 Z M 687.5 812.5 " style=" stroke:none;fill-rule:nonzero;fill:rgb(0%,0%,0%);fill-opacity:1;" />
</g>
</svg>

<svg xmlns="http://www.w3.org/2000/svg" height="1250" viewBox="0 0 937.5 937.5" width="1250"><path d="M781.25 165.531V78.125C781.195 35 746.25.055 703.125 0h-625C35 .055.055 35 0 78.125v343.75c.121 39.902 30.367 73.273 70.063 77.32l58.734 152.465c15.516 40.258 60.726 60.313 100.988 44.817l366.777-141.29c-25.343 66.2-18.132 140.461 19.461 200.551L625 770.094v151.781c0 8.633 6.992 15.625 15.625 15.625h281.25c8.633 0 15.625-6.992 15.625-15.625V406.113a204.484 204.484 0 00-59.863-144.023zm0 93.446l47.422 123.101c9.293 24.164-2.75 51.277-26.91 60.578l-27.106 10.469a78.145 78.145 0 006.594-31.25zm-750 162.898V78.125c0-25.883 20.992-46.875 46.875-46.875h625C729.008 31.25 750 52.242 750 78.125v99.313h-.137l.137.355v244.082a47.447 47.447 0 01-1.063 8.094l-143.125-143.14c-32.171-31.43-83.46-31.673-115.921-.571-32.47 31.12-34.418 82.37-4.391 115.847l61.016 66.645H78.125c-25.883 0-46.875-20.992-46.875-46.875zM231.422 500l-111.11 42.777L103.876 500zm-12.875 167.309c-24.156 9.312-51.285-2.73-60.594-26.887l-26.36-68.547L318.11 500v-.094h257.047l20.309 22.14zM906.25 906.25h-250v-125h250zm0-156.25H649.297l-6.777-10.828c-38.098-60.883-39.614-137.781-3.957-200.11a15.618 15.618 0 00-2.047-18.312L508.473 381.062c-19.094-20.898-18.02-53.207 2.422-72.78 20.449-19.579 52.773-19.259 72.82.71l248.988 248.93 22.094-22.094-57.813-57.812 16.032-6.25c40.226-15.52 60.273-60.692 44.797-100.942l-52.887-137.328 50.617 50.723a173.037 173.037 0 0150.707 121.894zm0 0"/><path d="M178.125 218.75c22.438 0 40.625-18.188 40.625-40.625v-75c0-22.438-18.188-40.625-40.625-40.625h-75C80.687 62.5 62.5 80.688 62.5 103.125v75c0 22.438 18.188 40.625 40.625 40.625zM93.75 178.125V156.25H125V125H93.75v-21.875c0-5.176 4.2-9.375 9.375-9.375h75c5.176 0 9.375 4.2 9.375 9.375V125h-31.25v31.25h31.25v21.875c0 5.176-4.2 9.375-9.375 9.375h-75c-5.176 0-9.375-4.2-9.375-9.375zm-15.625 87.5h62.5v31.25h-62.5zm0 93.75h62.5v31.25h-62.5zm281.25 0h62.5v31.25h-62.5zm-187.5-93.75h62.5v31.25h-62.5zm93.75 0h62.5v31.25h-62.5zm93.75 0h62.5v31.25h-62.5zm296.875-187.5h31.25V125h-31.25zm-62.5 0H625V125h-31.25zm-62.5 0h31.25V125h-31.25zm-62.5 0H500V125h-31.25zM687.5 812.5h31.25v31.25H687.5zm0 0"/></svg>
